X:1
T:The Woodcock
R:jig
M:6/8
L:1/8
K:G
|:dBG cGE|DED ~G2A|~B2B dcB|dcB ABc|
|dBG cGE|DED ~G2A|~B2B dcB|AGF ~G2B:|
|~d2d ede|fef ~g2e|ege dBd|dcB ABc|
|~d2d ede|fef ~g2e|ege dBG|AGF ~G2B|
|~d2d ede|fef ~g2e|ege dBd|dcB ABc|
|dBG cGE|DED ~G2A|~B2B dcB|AGF ~G2B|